documentation/_static/images/search-icon.svg

<svg width="16px" height="16px" viewBox="0 0 16 16" version="1.1" xmlns="http://www.w3.org/2000/svg" xmlns:xlink="http://www.w3.org/1999/xlink">
    <!-- Generator: Sketch 51.2 (57519) - http://www.bohemiancoding.com/sketch -->
    <desc>Created with Sketch.</desc>
    <defs>
        <polygon id="path-1" points="0 0 16 0 16 16 0 16"></polygon>
    </defs>
    <g id="Page-1" stroke="none" stroke-width="1" fill="none" fill-rule="evenodd">
        <g id="Artboard" transform="translate(-63.000000, -93.000000)">
            <g id="ic" transform="translate(63.000000, 93.000000)">
                <mask id="mask-2" fill="white">
                    <use xlink:href="#path-1"></use>
                </mask>
                <g id="Clip-2"></g>
                <path d="M2.95913767,9.58220606 C1.13316435,7.75622206 1.13316435,4.78513897 2.95913767,2.95915497 C3.87212433,2.04616298 5.07138409,1.5896202 6.27064385,1.5896202 C7.46990361,1.5896202 8.66925692,2.04616298 9.58224358,2.95915497 C11.4082169,4.78513897 11.4082169,7.75622206 9.58224358,9.58220606 C8.69769713,10.4667577 7.52163859,10.9538926 6.27064385,10.9538926 C5.01974267,10.9538926 3.84368413,10.4667577 2.95913767,9.58220606 Z M16,14.8357224 L11.2495505,10.0852451 C13.1351173,7.62730486 12.9554949,4.08320445 10.7067543,1.83454417 C8.26070966,-0.611514724 4.28057804,-0.611514724 1.83453345,1.83454417 C-0.611511149,4.28069663 -0.611511149,8.26075796 1.83453345,10.7068169 C3.01947955,11.8917699 4.59491713,12.544308 6.27064385,12.544308 C7.66870437,12.544308 8.99594505,12.0887007 10.085841,11.2501776 L14.8356356,16 L16,14.8357224 Z" id="Fill-1" fill="#cc33cc" mask="url(#mask-2)"></path>
            </g>
        </g>
    </g>
</svg>

<svg width="16" height="16" viewBox="0 0 16 16" xmlns="http://www.w3.org/2000/svg" xmlns:xlink="http://www.w3.org/1999/xlink"><defs><path id="a" d="M0 0h16v16H0z"/></defs><g fill="none" fill-rule="evenodd"><mask id="b" fill="#fff"><use xlink:href="#a"/></mask><path d="M2.96 9.582a4.689 4.689 0 010-6.623 4.669 4.669 0 013.31-1.37c1.2 0 2.4.457 3.312 1.37a4.689 4.689 0 010 6.623 4.653 4.653 0 01-3.311 1.372 4.653 4.653 0 01-3.312-1.372zM16 14.836l-4.75-4.75c1.885-2.459 1.705-6.003-.543-8.251a6.28 6.28 0 00-8.872 0 6.28 6.28 0 000 8.872 6.232 6.232 0 004.436 1.837 6.225 6.225 0 003.815-1.294l4.75 4.75L16 14.836z" fill="#c3c" mask="url(#b)"/></g></svg>
